X:1
T:The Holly and the Ivy
Z:transcribed by Tom Keays - http://tomkeays.com
C:Maud Karpeles and Pat Shaw, collectors.
M:3/4
L:1/4
Q:75
K:G
   G | (B/A/) G/ (D/G/) A/ | G/ (G G) d/ | (d/B/) G/ A y/  B/ | (A3/2 A) d/ |
w:The  hol -  ly and_   the  i- vy,_  When they_ are both full grown,_  Of
  d B/ (B/A/) B/ | c/ c/ c/ c c/ | B/ A/ G/ (A/G/) F/ |
w:all the trees_ that are in the wood, The hol- ly tree bears_ the
  G3/2 || "CHORUS" G A/ | (B/A/) G/ (D/G/) A/ | (G3/2 G/) d/ d/ |
w:crown. Oh, the ris - ing of_ the sun,_ And the
  (d/B/) G/ A B/ | (A3/2 A) d/ | d B/ (B/A/) B/ |
w:run - ning of the deer,_ The play- ing of_ the
  c/ c/ c/ c c/ | B/ A/ G/ (A/G/) F/ | (G3/2 G) |]
w:mer- ry or- gan, Sweet sing	- ing all in_ the choir._
